X:19
T:Capt' Catton's Maggot. JJo8.019
%%VWML:JohnsonVol8-2184-p10-0
F:http://www.vwml.org/record/JohnsonVol8/2184/p10
Z:Transcribed by Simon Furey and Lewis Jones
Z:vmp.Simon Wilson 2013 www.village-music-project.org.uk
Z:Dance added by John Chambers 2017
M:6/8
L:1/8
%Q:3/8=120
K:Bb
|: F |\
B2B Bdf | e3d2c | Bdf Acf | Bgf edc |\
B2B Bdf | e3d2c | d=ef cf=e | f3-f2 :|
|: f |\
fga bfe | dcBg3 | GAB cde | fed cdB |\
bfe dcB | AGFe3 | GAB cBA | B3-B2 :|
W: First Cu. lead thro' the 2d Cu. cast up
W:and foot it .| 2d Cu. lead thro' the top
W:cast off and foot it :| 1st Cu. cross over
W:and half figure :||. Right hands and
W:Left at top :||:
W:
T:Crab Tree. JJo8.020, The
B:J.Johnson Choice Collection Vol 8 1758
Z:vmp.Simon Wilson 2013 www.village-music-project.org.uk
Z:Dance added by John Chambers 2017
M:6/8
L:1/8
%Q:3/8=120
K:G
|:\
G2BA2c | B3GAB | c2ed2c | B3GAB |\
c2ed2c | B2gf2e | fed Ad^c | d3D3 :|
|:\
d2fe2g | f3def | g2fe2g | f3def |\
gfe dcB | edc BAG | FAc BcA | G3G,3 :|
W: First and 2d Cu. Right hands
W:across .| Left hands back again :|
W:Cross over and half figure :||.
W:Right hands and Left :||:
W:
